packages/assets/static/images/icons/basketball.svg

<svg width="24" height="24" viewBox="0 0 24 24" xmlns="http://www.w3.org/2000/svg">
<path d="M12 2.25C10.0716 2.25 8.18657 2.82183 6.58319 3.89317C4.97982 4.96451 3.73013 6.48726 2.99218 8.26884C2.25422 10.0504 2.06114 12.0108 2.43735 13.9021C2.81355 15.7934 3.74215 17.5307 5.10571 18.8943C6.46928 20.2579 8.20656 21.1865 10.0979 21.5627C11.9892 21.9389 13.9496 21.7458 15.7312 21.0078C17.5127 20.2699 19.0355 19.0202 20.1068 17.4168C21.1782 15.8134 21.75 13.9284 21.75 12C21.7473 9.41498 20.7192 6.93661 18.8913 5.10872C17.0634 3.28084 14.585 2.25273 12 2.25ZM5.625 6.76594C6.67763 8.04022 7.31928 9.60364 7.46532 11.25H3.78469C3.93269 9.60412 4.57411 8.04126 5.625 6.76594ZM12.75 11.25V3.78469C14.4314 3.93697 16.025 4.6038 17.3138 5.69438C15.9809 7.25633 15.1803 9.2023 15.0281 11.25H12.75ZM11.25 11.25H8.97188C8.8197 9.2023 8.01912 7.25633 6.68625 5.69438C7.97502 4.6038 9.56861 3.93697 11.25 3.78469V11.25ZM7.46532 12.75C7.31928 14.3964 6.67763 15.9598 5.625 17.2341C4.57411 15.9587 3.93269 14.3959 3.78469 12.75H7.46532ZM8.97188 12.75H11.25V20.2153C9.56861 20.063 7.97502 19.3962 6.68625 18.3056C8.01895 16.7436 8.81951 14.7977 8.97188 12.75ZM12.75 12.75H15.0281C15.1805 14.7977 15.9811 16.7436 17.3138 18.3056C16.025 19.3962 14.4314 20.063 12.75 20.2153V12.75ZM16.5347 12.75H20.2153C20.0673 14.3959 19.4259 15.9587 18.375 17.2341C17.3224 15.9598 16.6807 14.3964 16.5347 12.75ZM16.5347 11.25C16.6807 9.60364 17.3224 8.04022 18.375 6.76594C19.4259 8.04126 20.0673 9.60412 20.2153 11.25H16.5347Z"/>
</svg>

<svg viewBox="0 0 24 24" xmlns="http://www.w3.org/2000/svg" aria-hidden="true" fill="currentColor"><path d="M12 2.25A9.75 9.75 0 1 0 21.75 12 9.76 9.76 0 0 0 12 2.25M5.625 6.766a8.2 8.2 0 0 1 1.84 4.484h-3.68a8.2 8.2 0 0 1 1.84-4.484m7.125 4.484V3.785a8.2 8.2 0 0 1 4.564 1.91 9.66 9.66 0 0 0-2.286 5.555zm-1.5 0H8.972a9.66 9.66 0 0 0-2.286-5.556 8.2 8.2 0 0 1 4.564-1.91zm-3.785 1.5a8.2 8.2 0 0 1-1.84 4.484 8.2 8.2 0 0 1-1.84-4.484zm1.507 0h2.278v7.465a8.2 8.2 0 0 1-4.564-1.91 9.66 9.66 0 0 0 2.286-5.555m3.778 0h2.278a9.66 9.66 0 0 0 2.286 5.556 8.2 8.2 0 0 1-4.564 1.91zm3.785 0h3.68a8.2 8.2 0 0 1-1.84 4.484 8.2 8.2 0 0 1-1.84-4.484m0-1.5a8.2 8.2 0 0 1 1.84-4.484 8.2 8.2 0 0 1 1.84 4.484z"/></svg>
